X:508
%%etbk:tnset id:234,pos:1,rep:3x,ant:
%%etbk:pldat 2016-07-21T19:32,2015-04-29T15:19,2014-11-19T16:44,2014-05-17T15:17,2014-04-12T15:39,2014-04-07T19:40,2013-12-11T16:18,2013-11-18T18:29,2013-11-17T15:19,2013-11-03T15:11,2013-10-05T16:21,2013-10-02T18:15,2013-09-29T15:23,2013-09-27T14:39,2013-09-26T16:10
T:Gorman's
Z: Piano Box Version by Martin Fleischmann
H: Created 2013-09-15 /  Last Modified 2013-09-15
R:reel
M:4/4
K:Dmaj
|:!1!A2AB !3!d!4!e!3!f!5!a | !5!a2fd !2!ef!1!d!2!B| !1!A2AB !3!de!5!fe|!3!dB!1!A!3!F !2!EF!1!D2:||
!5!a2af !1!def!5!a|!5!a2fd !2!efdf|!5!a2af !1!de!3!fe|!1!d!2!B!1!A!3!F !2!EF!1!D2|
!5!a2af !1!def!5!a|!5!a2fd !2!ef!1!d!2!B|!1!A2AB !3!de!5!fe|!3!dB!1!A!3!F !2!EF!1!D2||


